icons/phone_small.svg

<svg width="26" height="26" viewBox="0 0 26 26" fill="none" xmlns="http://www.w3.org/2000/svg">
<path d="M21.6667 11.9157H23.8333C23.8333 6.35816 19.6376 2.16675 14.0725 2.16675V4.33341C18.473 4.33341 21.6667 7.52166 21.6667 11.9157Z" fill="#CD06FF"/>
<path d="M14.0834 8.6666C16.3616 8.6666 17.3334 9.63835 17.3334 11.9166H19.5001C19.5001 8.42285 17.5771 6.49993 14.0834 6.49993V8.6666ZM17.7906 14.5632C17.5824 14.374 17.3089 14.2731 17.0277 14.2818C16.7465 14.2905 16.4797 14.4081 16.2836 14.6098L13.6912 17.2759C13.0672 17.1567 11.8127 16.7656 10.5214 15.4775C9.23006 14.1851 8.83898 12.9274 8.72306 12.3077L11.387 9.71418C11.5889 9.51824 11.7067 9.25141 11.7154 8.97016C11.7241 8.68891 11.623 8.41531 11.4336 8.20727L7.43064 3.80568C7.24111 3.59699 6.97768 3.4704 6.69631 3.4528C6.41494 3.4352 6.13779 3.52798 5.92373 3.71143L3.57289 5.72752C3.3856 5.91549 3.27381 6.16567 3.25873 6.4306C3.24248 6.70143 2.93264 13.1169 7.90731 18.0938C12.2471 22.4325 17.6833 22.7499 19.1805 22.7499C19.3993 22.7499 19.5336 22.7434 19.5694 22.7413C19.8343 22.7264 20.0843 22.6142 20.2714 22.426L22.2864 20.0741C22.47 19.8602 22.5629 19.5831 22.5456 19.3017C22.5282 19.0204 22.4018 18.7569 22.1932 18.5672L17.7906 14.5632Z" fill="#CD06FF"/>
</svg>

<svg width="26" height="26" fill="none" xmlns="http://www.w3.org/2000/svg"><path d="M21.667 11.916h2.166c0-5.558-4.195-9.75-9.76-9.75v2.167c4.4 0 7.594 3.189 7.594 7.583Z" fill="#CD06FF"/><path d="M14.083 8.667c2.279 0 3.25.971 3.25 3.25H19.5c0-3.494-1.923-5.417-5.417-5.417v2.167Zm3.708 5.896a1.084 1.084 0 0 0-1.507.047l-2.593 2.666c-.624-.12-1.878-.51-3.17-1.799-1.29-1.292-1.682-2.55-1.798-3.17l2.664-2.593a1.084 1.084 0 0 0 .047-1.507L7.43 3.806a1.083 1.083 0 0 0-1.507-.095L3.573 5.728c-.187.187-.3.438-.314.703-.017.27-.326 6.686 4.648 11.663 4.34 4.338 9.776 4.656 11.273 4.656.22 0 .354-.007.39-.009.264-.015.514-.127.701-.315l2.015-2.352a1.084 1.084 0 0 0-.093-1.507l-4.402-4.004Z" fill="#CD06FF"/></svg>
